Adwaita++/actions/symbolic/edit-select-all-symbolic.svg

<svg height="15.974" width="16" xmlns="http://www.w3.org/2000/svg">
  <path d="m1 1h1v1h-1zm2 0h1v1h-1zm2 0h1v1h-1zm2 0h1v1h-1zm2 0h1v1h-1zm2 0h1v1h-1zm2 0h1v1h-1zm0 2h1v1h-1zm0 2h1v1h-1zm0 2h1v1h-1zm0 2h1v1h-1zm0 2h1v1h-1zm0 2h1v1h-1zm-2 0h1v1h-1zm-2 0h1v1h-1zm-2 0h1v1h-1zm-2 0h1v1h-1zm-2 0h1v1h-1zm-2 0h1v1h-1zm0-2h1v1h-1zm0-2h1v1h-1zm0-2h1v1h-1zm0-2h1v1h-1zm0-2h1v1h-1zm2 5.104h4v4h-4zm5 0h4v4h-4zm-5-5.104h9v4h-9z" fill="#474747"/>
</svg>

<svg xmlns="http://www.w3.org/2000/svg" width="16" height="15.974">
    <g color="#000" fill="#474747">
        <path d="M1 1h1v1H1zM3 1h1v1H3zM5 1h1v1H5zM7 1h1v1H7zM9 1h1v1H9zM11 1h1v1h-1zM13 1h1v1h-1zM13 3h1v1h-1zM13 5h1v1h-1zM13 7h1v1h-1zM13 9h1v1h-1zM13 11h1v1h-1zM13 13h1v1h-1zM11 13h1v1h-1zM9 13h1v1H9zM7 13h1v1H7zM5 13h1v1H5zM3 13h1v1H3zM1 13h1v1H1zM1 11h1v1H1zM1 9h1v1H1zM1 7h1v1H1zM1 5h1v1H1zM1 3h1v1H1zM3 8.104h4v4H3zM8 8.104h4v4H8zM3 3h9v4H3z" style="isolation:auto;mix-blend-mode:normal;marker:none" overflow="visible"/>
    </g>
</svg>
